assets/icons/sync/_.svg

<?xml version="1.0" encoding="UTF-8" standalone="no"?>
<svg viewBox="0 0 24 24" height="24" width="24" version="1.1" id="svg6" sodipodi:docname="synchronizing.svg" inkscape:version="1.1.2 (08b2f3d93c, 2022-04-05)"
   xmlns:inkscape="http://www.inkscape.org/namespaces/inkscape"
   xmlns:sodipodi="http://sodipodi.sourceforge.net/DTD/sodipodi-0.dtd"
   xmlns="http://www.w3.org/2000/svg"
   xmlns:svg="http://www.w3.org/2000/svg">
   <defs id="defs10" />
   <sodipodi:namedview id="namedview8" pagecolor="#ffffff" bordercolor="#666666" borderopacity="1.0" inkscape:pageshadow="2" inkscape:pageopacity="0.0" inkscape:pagecheckerboard="0" showgrid="true" inkscape:zoom="22.627417" inkscape:cx="14.56198" inkscape:cy="12.81631" inkscape:window-width="1920" inkscape:window-height="1043" inkscape:window-x="0" inkscape:window-y="0" inkscape:window-maximized="1" inkscape:current-layer="svg6" inkscape:snap-page="true" inkscape:snap-center="true">
      <inkscape:grid type="xygrid" id="grid12" />
   </sodipodi:namedview>
   <path style="fill:#808080;stroke-width:1.28222" d="m 12,3 a 9,9 0 0 0 -8.0742188,5.1191406 l -1.5449218,-0.9921875 c -0.1242997,0.8811736 -0.2173057,1.7665615 -0.2792969,2.6542969 -0.061546,0.910373 -0.095151,1.809182 -0.1015625,2.6875 1.6164886,-0.760817 3.1846053,-1.619662 4.6972656,-2.5703125 l -1.921875,-1.234375 a 8,8 0 0 1 7.2246094,-4.6640625 8,8 0 0 1 7.466797,5.1289062 l 0.929687,-0.359375 a 9,9 0 0 0 -8.396484,-5.7695312 z" id="path2" inkscape:transform-center-x="0.801758" inkscape:transform-center-y="-4.265625" />
   <path style="fill:#808080;stroke-width:1.28222" d="m 12,21 a 9,9 0 0 0 8.074219,-5.119141 l 1.544922,0.992188 c 0.124299,-0.881174 0.217305,-1.766562 0.279296,-2.654297 0.06155,-0.910373 0.09515,-1.809182 0.101563,-2.6875 -1.616489,0.760817 -3.184605,1.619662 -4.697266,2.570313 l 1.921875,1.234375 a 8,8 0 0 1 -7.224609,4.664062 8,8 0 0 1 -7.466797,-5.128906 l -0.929687,0.359375 a 9,9 0 0 0 8.396484,5.769531 z" id="path109" inkscape:transform-center-x="-0.801758" inkscape:transform-center-y="4.265625" />
</svg>

<svg height="24" width="24" xmlns="http://www.w3.org/2000/svg"><path style="fill:gray;stroke-width:1.28222" d="M12 3a9 9 0 0 0-8.074 5.12L2.38 7.126A37.91 37.91 0 0 0 2.1 9.78a44.75 44.75 0 0 0-.1 2.69A44.21 44.21 0 0 0 6.697 9.9L4.775 8.663A8 8 0 0 1 12 4a8 8 0 0 1 7.467 5.129l.93-.36A9 9 0 0 0 12 3zm0 18a9 9 0 0 0 8.074-5.12l1.545.993a37.91 37.91 0 0 0 .28-2.654c.061-.91.095-1.81.101-2.688a44.21 44.21 0 0 0-4.697 2.57l1.922 1.235A8 8 0 0 1 12 20a8 8 0 0 1-7.467-5.129l-.93.36A9 9 0 0 0 12 21z"/></svg>
